X:1
T:[ID 1-89a (Variante; 2. Stimme?)]
T:[ID 1-89a (Variante; 2. Stimme?)]
T:Bezeichnung standardisiert: My Lord Byron's maggot; Wincke Tantz oder Stenvortscher Tantz In anderer Quelle: Wenker-Tanz od Duller Jakob - Hs. aus Arendsee (Anm. S. Wascher);
T:Urheber unbekannt Erstbeleg: vor 1767 (Datum in der schriftlichen Quelle) Datum in der hier transkribierten schriftlichen Quelle: 1792
C:Urheber unbekannt
C:Erstbeleg: vor 1767 (Datum in der schriftlichen Quelle)
C:Datum in der hier transkribierten schriftlichen Quelle: 1792
L:1/8
M:6/8
K:D
V:1 treble 
V:1
 A | dAd dAd | dAd d2 f | fdf fdf | fdf f2 e | fga efg | fga efg | fga bag | a3 a a2 :: a | %10
 fdf geg | fdf geg | fdf gaf | e3 e2 (f/g/) | .a3 .g3 | f3 e3 | a3 g3 | f3 e2 a | fad eAa | %19
 fad eAa | fed edc | d3 d d2 :| %22

